X:2512
T:Hi son Hughee 
C:Traditional
O:Isle of Man
S:Willy Duddy and Charles (?)
Z:Clague collection
N:See also KV 22,250.  Key changed and middle section transposed for consistency.
B:Kiaull Vannin #251 
L:1/4
M:4/4 
Q:220 
K:D 
e|BB AB|d2 FA|BF EE|E3 B|ed ef|g2 ff|ee ed|B3B| 
ed de|g2 ff|ee fd|B3 e|BB AB|d2 FA|BF EE|E3|| 

